img/header/close.svg

<svg width="18" height="17" viewBox="0 0 18 17" fill="none" xmlns="http://www.w3.org/2000/svg">
<path d="M9 6.6949L15.2222 0.472085C15.6518 0.0425082 16.3482 0.0425082 16.7778 0.472085C17.1767 0.870978 17.2052 1.50001 16.8633 1.93178L16.7778 2.02772L10.555 8.2499L16.7778 14.4721C17.1767 14.871 17.2052 15.5 16.8633 15.9318L16.7778 16.0277C16.3789 16.4266 15.7499 16.4551 15.3181 16.1132L15.2222 16.0277L9 9.8049L2.77782 16.0277C2.37893 16.4266 1.7499 16.4551 1.31813 16.1132L1.22218 16.0277C0.823291 15.6288 0.794799 14.9998 1.13671 14.568L1.22218 14.4721L7.445 8.2499L1.22218 2.02772C0.823291 1.62883 0.794799 0.999797 1.13671 0.568028L1.22218 0.472085C1.62108 0.0731922 2.25011 0.0446999 2.68188 0.386608L2.77782 0.472085L9 6.6949L15.2222 0.472085L9 6.6949Z" fill="#183B56"/>
</svg>

<svg width="18" height="17" fill="none" xmlns="http://www.w3.org/2000/svg"><path d="M9 6.695L15.222.472a1.1 1.1 0 011.641 1.46l-.085.096-6.223 6.222 6.223 6.222a1.1 1.1 0 01.085 1.46l-.085.096a1.1 1.1 0 01-1.46.085l-.096-.085L9 9.805l-6.222 6.223a1.1 1.1 0 01-1.46.085l-.096-.085a1.1 1.1 0 01-.085-1.46l.085-.096L7.445 8.25 1.222 2.028a1.1 1.1 0 01-.085-1.46l.085-.096a1.1 1.1 0 011.46-.085l.096.085L9 6.695 15.222.472 9 6.695z" fill="#183B56"/></svg>
